X: 20633
Q: "Lively."
M: C
L: 1/8
K: G
|:\
dddd d3B | c2B2 A2z2 |\
dddd d3G |
d2BG A2FD |d2BG A2FD |\
d2BG A2FD | d2BG A2FD |\


